X:122
T: WIR KOMMEN DAHER
N: E1186
O: Europa, Mitteleuropa, Deutschland, Mittel - Franken, Ziegelanger
R: Ansinge -, Brauchtums - Lied, Kirchen - Fest, Neujahr, Silvester
M: 3/8
L: 1/16
K: C
CD | E2E2E2 | C2D2E2 | G2F2E2 | D4
C2 | B,3DD2 | D2E2F2 | E4D2 | C4
C2 | B,3DD2 | D2E2F2 | E4D2 | C4

@@@ Tune index: 4806
